!!!COM: Monteverdi, Claudio
!!!CDT: 1567/05/15/-1643/11/29/
!!!OTL: Te Jesu Christe
!!!OTL2: Ecco piegando
!!!ONM: No. 10
!!!SMS: Musica tolta da i madrigali di Claudio Monteverdi, e d'altri autori, e fatta spirituale
!!!PPR: A. Coppini, ed.
!!!PPP: Milan
!!!PDT: 1607
!!!URL: http://www.jpj.dk/coppini.htm
!!!AIN: contrafacta
**kern	**kern	**kern	**kern	**kern
*staff5	*staff4	*staff3	*staff2	*staff1
*Ivox	*Ivox	*Ivox	*Ivox	*Ivox
!basso	!tenore	!alto	!quinto	!canto
*clefF4	*clefGv2	*clefG2	*clefG2	*clefG2
*k[b-]	*k[b-]	*k[b-]	*k[b-]	*k[b-]
*M4/4	*M4/4	*M4/4	*M4/4	*M4/4
*MM120	*MM120	*MM120	*MM120	*MM120
=1-	=1-	=1-	=1-	=1-
2.G\	1r	2.g/	2.b-\	2.dd\
8G\	.	8g/	8b-\	8dd\
8G\	.	8g/	8b-\	8dd\
=2	=2	=2	=2	=2
2G\	1r	2g/	2b-\	2dd\
4G\	.	4g/	4b-\	4dd\
8G\	.	8g/	8b-\	8dd\
8G\	.	8g/	8b-\	8dd\
=3	=3	=3	=3	=3
4.G\	1r	4.g/	4.b-\	4.dd\
8G\	.	8d/	8b-\	8dd\
4C/	.	4e-/	4g/	4cc\
4C/	.	4e-/	4g/	4cc\
=4	=4	=4	=4	=4
8D\	1r	8d/	8f/	8b-\
8D\	.	8d/	8f/	8b-\
4.F\	.	4.c/	4.f/	4.a/
8F\	.	8c/	8f/	8a/
4G\	.	4B-/	4d/	4g/
=5	=5	=5	=5	=5
1D	2.d\	1A	2d/	2f#/
.	.	.	2d/	4f#/
.	8d\	.	.	8dd\
.	8d\	.	.	8ee\
=6	=6	=6	=6	=6
2D\	2d\	2A/	2r	4ff\
.	.	.	.	4ff\
2r	4d\	2r	4r	4r
.	8d\	.	8dd\	8ff\
.	8d\	.	8ee\	8gg\
=7	=7	=7	=7	=7
1r	4.d\	1r	4ff\	4aa\
.	.	.	8ee\	8gg\
.	8d\	.	8ff\	8aa\
.	4G/	.	2gg\	2bb-\
.	4G/	.	.	.
=8	=8	=8	=8	=8
1r	8A/	1r	4ff\	4aa\
.	8A/	.	.	.
.	4.c\	.	2ee\	2gg\
.	8c\	.	.	.
.	4d\	.	4dd\	4ff\
=9	=9	=9	=9	=9
1r	2A/	1r	4dd\	4ff\
.	.	.	8cc#\L	8ee\L
.	.	.	8bn\J	8dd\J
.	2A/	.	2cc#\	2ee\
=10	=10	=10	=10	=10
2r	4r	2r	2dd\	2dd\
.	8B-\	.	.	.
.	8c\	.	.	.
4r	[2d\	4r	2r	2r
8B-\	.	8g/	.	.
8c\	.	8a/	.	.
=11	=11	=11	=11	=11
4d\	4d\]	4b-\	1r	1r
8c\	8e\	8a/	.	.
8d\	8f\	8b-\	.	.
2e-\	2g\	2cc\	.	.
=12	=12	=12	=12	=12
4d\	4f\	4b-\	1r	1r
2c\	2e\	4a/	.	.
.	.	4g/	.	.
4B-\	4d\	[4g/	.	.
=13	=13	=13	=13	=13
4B-\	4d\	4g/]	1r	1r
8A\L	8c\L	8f#/L	.	.
8G\J	8B-\J	8e/J	.	.
2A\	2c\	2f#/	.	.
=14	=14	=14	=14	=14
1G	1d	1g	1r	4r
.	.	.	.	8g/
.	.	.	.	8a/
.	.	.	.	4b-\
.	.	.	.	4b-\
=15	=15	=15	=15	=15
1r	1r	4r	4r	4r
.	.	8g/	8g/	8b-\
.	.	8g/	8a/	8cc\
.	.	4g/	4b-\	4dd\
.	.	8g/	8a/	8cc\
.	.	8g/	8b-\	8dd\
=16	=16	=16	=16	=16
1r	1r	2c/	2cc\	2.ee-\
.	.	4g/	4b-\	.
.	.	[4f/	[4a/	[4dd\
=17	=17	=17	=17	=17
1r	1r	4f/]	4a/]	4dd\]
.	.	4e-/	4g/	2cc\
.	.	[2d/	4f#/	.
.	.	.	[4g/	4b-\
=18	=18	=18	=18	=18
1r	2r	1d]	4g/]	4b-\
.	.	.	8f#/L	8a/L
.	.	.	8e/J	8g/J
.	[2d\	.	2f#/	2a/
=19	=19	=19	=19	=19
1r	2d\]	1G	1g	1g
.	2d\	.	.	.
=20	=20	=20	=20	=20
1G	4G/	1g	1bn	1dd
.	8G/	.	.	.
.	8A/	.	.	.
.	4Bn\	.	.	.
.	4c\	.	.	.
=21	=21	=21	=21	=21
2G\	2d\	2g/	2bn\	2dd\
4C/	2c\	4g/	4ee\	4gg\
8C/	.	8g/	8ee\	8gg\
8D\	.	8g/	8dd\	8ff\
=22	=22	=22	=22	=22
4E\	1r	4g/	4cc\	4.ee\
4F\	.	4a/	4a/	.
.	.	.	.	8dd\
2G\	.	2g/	2bn\	2dd\
=23	=23	=23	=23	=23
1C	2c\	1g	1cc	1ee
.	2c\	.	.	.
=24	=24	=24	=24	=24
1r	4F/	1r	2.a/	2.cc\
.	8F/	.	.	.
.	8G/	.	.	.
.	4A/	.	.	.
.	4B-\	.	8g/	8b-\
.	.	.	8f/	8a/
=25	=25	=25	=25	=25
1r	2c\	2r	4.e/	4.g/
.	.	.	8e/	8g/
.	4F/	4r	2f/	2f/
.	[4f\	[4a/	.	.
=26	=26	=26	=26	=26
2A\	4f\]	4a/]	1r	1r
.	8e\	8g/	.	.
.	8d\	8f/	.	.
2A\	4.c#\	4.e/	.	.
.	8c#\	8e/	.	.
=27	=27	=27	=27	=27
4D\	1d	2d/	2.ff\	2.aa\
8D\	.	.	.	.
8E\	.	.	.	.
4F\	.	2r	.	.
4G\	.	.	8ee\	8gg\
.	.	.	8dd\	8ff\
=28	=28	=28	=28	=28
2A\	1r	1r	4.cc#\	4.ee\
.	.	.	8cc#\	8ee\
[2D\	.	.	4dd\	4dd\
.	.	.	[4b-\	[4dd\
=29	=29	=29	=29	=29
2D\]	2d\	1r	4b-\]	4dd\]
.	.	.	8a/	8cc\
.	.	.	8g/	8b-\
2r	2d\	.	2f#/	2a/
=30	=30	=30	=30	=30
2r	4G/	2d/	1g	2g/
.	8G/	.	.	.
.	8A/	.	.	.
[2G\	4Bn\	2d/	.	2r
.	4B\	.	.	.
=31	=31	=31	=31	=31
2.G\]	4Bn\	4G/	1r	1r
.	8B\	8G/	.	.
.	8c\	8A/	.	.
.	4d\	4Bn/	.	.
8F\	4e\	4c/	.	.
8E\	.	.	.	.
=32	=32	=32	=32	=32
4.D\	2f\	4c/	1r	1r
.	.	4Bn/	.	.
8D\	.	.	.	.
[2C/	4e\	4c/	.	.
.	[4a\	[4cc\	.	.
=33	=33	=33	=33	=33
1C]	4a\]	4cc\]	1r	1r
.	8g\	8b-\	.	.
.	8f\	8a/	.	.
.	4.e\	4.g/	.	.
.	8e\	8g/	.	.
=34	=34	=34	=34	=34
8F\	1f	1a	2r	2r
8F\	.	.	.	.
8F\	.	.	.	.
8E\	.	.	.	.
2D\	.	.	8ff\	8dd\
.	.	.	8ff\	8dd\
.	.	.	8ff\	8dd\
.	.	.	8gg\	8ee\
=35	=35	=35	=35	=35
2r	8d\	8f/	2aa\	2ff\
.	8d\	8f/	.	.
.	8d\	8f/	.	.
.	8e\	8g/	.	.
8d\	2f\	4a/	8aa\	8ff\
8d\	.	.	8aa\	8ff\
8d\	.	[4dd\	8aa\	8ff\
8e\	.	.	8gg\	8gg\
=36	=36	=36	=36	=36
4f\	8d\	4dd\]	4ff\	2aa\
.	8d\	.	.	.
2d\	8d\	8cc\	2ff\	.
.	8e\	8b-\	.	.
.	4f\	[2a/	.	[2aa\
8c\	[4f\	.	8ee\	.
8B-\	.	.	8dd\	.
=37	=37	=37	=37	=37
2A\	4f\]	2a/]	4cc#\	4aa\]
.	8e\	.	2dd\	8gg\
.	8d\	.	.	8ff\
4.A\	4e\	4.a/	.	4ee\
.	8e\	.	4cc#\	8ee\
8A\	8A/	8a/	.	8ee\
=38	=38	=38	=38	=38
8D\	8A/	8f/	8dd\	8ff\
8E\	8A/	8g/	8cc\	8ee\
8F\	8A/	8a/	8cc\	8dd\
8G\	8d\	8g/	8bn\	8dd\
4C/	4c\	4g/	4cc\	4ee\
4C/	4c\	4g/	4cc\	4ee\
=39	=39	=39	=39	=39
4F\	4c\	4a/	4r	4r
4F\	4c\	4a/	8a/	8cc\
.	.	.	8b-\	8cc\
2F\	2c\	2a/	4cc\	2ff\
.	.	.	[4ff\	.
=40	=40	=40	=40	=40
4.C/	4.c\	4.g/	4ff\]	4.gg\
.	.	.	4ee\	.
8C/	8c\	8g/	.	8gg\
2F\	2c\	2a/	2ff\	2ff\
=41	=41	=41	=41	=41
1r	2f\	1r	2a/	4cc\
.	.	.	.	2dd\
.	4e-\	.	4g/	.
.	4e-\	.	4g/	4g/
=42	=42	=42	=42	=42
1r	2d\	1r	2f#/	2a/
.	2d\	.	2f#/	2a/
=43	=43	=43	=43	=43
2B-\	4r	2d/	4r	4ff\
.	4B-\	.	4dd\	2gg\
4.A\	4.c\	4.e/	2cc\	.
.	.	.	.	[4cc\
8A\	8c\	8e/	.	.
=44	=44	=44	=44	=44
4A\	4c\	4e/	4a/	4cc\]
4A\	4c\	4e/	8a/	8cc\
.	.	.	8a/	8cc\
2A\	2c\	4.e/	4.a/	4.cc\
.	.	8e/	8a/	8cc\
=45	=45	=45	=45	=45
4A\	4c\	8e/	8a/	8cc\
.	.	8e/	8b-\	8dd\
8A\	8c\	4.f#/	2cc\	2ee\
8A\	8c\	.	.	.
4A\	4c\	.	.	.
.	.	8f#/	.	.
8A\	8c\	4f#/	8bn\	8dd\
8A\	8c\	.	8a/	8cc\
=46	=46	=46	=46	=46
2G\	2d\	2g/	2dd\	2bn\
2G\	2d\	2g/	4.bn\	2dd\
.	.	.	8b\	.
=47	=47	=47	=47	=47
4F\	4f\	4a/	4a/	4.dd\
4E\	4g\	4g/	2cc\	.
.	.	.	.	8dd\
2G\	2d\	2g/	.	2dd\
.	.	.	4bn\	.
=48	=48	=48	=48	=48
1C	1e	1g	1cc	2cc\
.	.	.	.	2r
=49	=49	=49	=49	=49
2c\	4r	2e/	2ee\	4gg\
.	4c\	.	.	2aa\
4.B-\	4.d\	4.f/	4.dd\	.
.	.	.	.	4dd\
8B-\	8d\	8f/	8ee\	.
=50	=50	=50	=50	=50
4B-\	4d\	4f/	4ff\	4dd\
4B-\	4g\	4d/	4dd\	4dd\
2A\	2e\	2a/	2ee\	2cc#\
=51	=51	=51	=51	=51
2A\	2e\	2a/	2cc#\	4.ee\
.	.	.	.	8ee\
4G\	4g\	4bn\	8bn\	2ee\
.	.	.	8cc#\	.
4F#\	4a\	4a/	[4dd\	.
=52	=52	=52	=52	=52
1A	1e	1a	4dd\]	1ee
.	.	.	8cc#\L	.
.	.	.	8bn\J	.
.	.	.	2cc#\	.
=53	=53	=53	=53	=53
1D	1f#	1a	1dd	2dd\
.	.	.	.	[2dd\
=54	=54	=54	=54	=54
2.G\	2.Bn\	2.d/	1r	4dd\]
.	.	.	.	8cc\
.	.	.	.	8dd\
.	.	.	.	2g/
8F\	8A/	8d/	.	.
8G\	8B\	8d/	.	.
=55	=55	=55	=55	=55
1C	2c\	[1e	2.g/	4g/
.	.	.	.	2gg\
.	2c\	.	.	.
.	.	.	8g/	8ff\
.	.	.	8g/	8gg\
=56	=56	=56	=56	=56
1AA	2.c\	2e/]	1a	2cc\
.	.	2f/	.	4cc\
.	8c\	.	.	[4ff\
.	8c\	.	.	.
=57	=57	=57	=57	=57
2.BB-/	2B-\	[1d	2a/	2.ff\]
.	2B-\	.	4g/	.
4C/	.	.	[4g/	8ee\
.	.	.	.	8ff\
=58	=58	=58	=58	=58
1D	4r	1d]	4g/]	4b-\
.	4G/	.	8f#/L	4b-\
.	.	.	8e/J	.
.	2A/	.	2f#/	2a/
=59	=59	=59	=59	=59
1G;	1G;	1d;	1g;	1bn;
==	==	==	==	==
*-	*-	*-	*-	*-
!!!ENC: Craig Stuart Sapp
!!!END: 2004/12/10/
